src/assets/icons/window-minimize.svg

<svg width="14" height="14" viewBox="0 0 14 14" fill="none" xmlns="http://www.w3.org/2000/svg">
<g id="window-minimize">
<g clip-path="url(#clip0_156_4639)">
<path id="Vector" fill-rule="evenodd" clip-rule="evenodd" d="M2.2 0C0.988629 0 0 0.988629 0 2.2V7C0 7.33137 0.268629 7.6 0.6 7.6C0.931371 7.6 1.2 7.33137 1.2 7V2.2C1.2 1.65137 1.65137 1.2 2.2 1.2H11.8C12.3486 1.2 12.8 1.65137 12.8 2.2V11.8C12.8 12.3486 12.3486 12.8 11.8 12.8H7C6.66863 12.8 6.4 13.0686 6.4 13.4C6.4 13.7314 6.66863 14 7 14H11.8C13.0114 14 14 13.0114 14 11.8V2.2C14 0.988629 13.0114 0 11.8 0H2.2ZM7.2 4.2C7.2 3.86863 6.93137 3.6 6.6 3.6C6.26863 3.6 6 3.86863 6 4.2V7.4C6 7.48135 6.01619 7.55893 6.04553 7.62967C6.07481 7.70044 6.11821 7.76674 6.17574 7.82426C6.29289 7.94142 6.44645 8 6.6 8H9.8C10.1314 8 10.4 7.73137 10.4 7.4C10.4 7.06863 10.1314 6.8 9.8 6.8H8.04853L10.6243 4.22426C10.8586 3.98995 10.8586 3.61005 10.6243 3.37574C10.3899 3.14142 10.0101 3.14142 9.77574 3.37574L7.2 5.95147V4.2ZM1.2 10.2C1.2 10.0895 1.28954 10 1.4 10H3.8C3.91046 10 4 10.0895 4 10.2V12.6C4 12.7105 3.91046 12.8 3.8 12.8H1.4C1.28954 12.8 1.2 12.7105 1.2 12.6V10.2ZM1.4 8.8C0.626801 8.8 0 9.4268 0 10.2V12.6C0 13.3732 0.626801 14 1.4 14H3.8C4.5732 14 5.2 13.3732 5.2 12.6V10.2C5.2 9.4268 4.5732 8.8 3.8 8.8H1.4Z" fill="black"/>
</g>
</g>
<defs>
<clipPath id="clip0_156_4639">
<rect width="14" height="14" fill="white"/>
</clipPath>
</defs>
</svg>

<svg xmlns="http://www.w3.org/2000/svg" fill="none" viewBox="0 0 14 14"><g clip-path="url(#a)"><path fill="#000" fill-rule="evenodd" d="M2.2 0C.989 0 0 .989 0 2.2V7a.6.6 0 0 0 1.2 0V2.2c0-.549.451-1 1-1h9.6c.549 0 1 .451 1 1v9.6c0 .549-.451 1-1 1H7A.6.6 0 1 0 7 14h4.8c1.211 0 2.2-.989 2.2-2.2V2.2C14 .989 13.011 0 11.8 0zm5 4.2a.6.6 0 0 0-1.2 0v3.2a.6.6 0 0 0 .6.6h3.2a.6.6 0 1 0 0-1.2H8.049l2.575-2.576a.6.6 0 0 0-.848-.848L7.2 5.95zm-6 6c0-.11.09-.2.2-.2h2.4c.11 0 .2.09.2.2v2.4a.2.2 0 0 1-.2.2H1.4a.2.2 0 0 1-.2-.2zm.2-1.4A1.4 1.4 0 0 0 0 10.2v2.4A1.4 1.4 0 0 0 1.4 14h2.4a1.4 1.4 0 0 0 1.4-1.4v-2.4a1.4 1.4 0 0 0-1.4-1.4z" clip-rule="evenodd"/></g><defs><clipPath id="a"><path fill="#fff" d="M0 0h14v14H0z"/></clipPath></defs></svg>
